X: 99
T:Blackbird I
M:6/8
L:1/8
F:http://blackrosetheband.googlepages.com/ABCTUNES.ABC May 2009
C:Sharon Shannon
K:D
"D"F2A ABA|"G"G2B BAG|"D"F2A A2F|"A"E2F D2E|
"D"F2A ABA|"G"G2B BAG|"A"e2d cBA|1 "D"d2A B2A:|2 "D"d2A d2e||
f2A f2A|"G"g2B g2f|"A"e2d c2d|e2d cBA|
"D"f2A f2A|"G"g2B g2f|"A"e2d cde|1 "D"d2A d2e:|2 "D"d2A B2A||

